X:1
T:Monkland, 77.77
T:Monkland, 77.77
T:John Antes, 1790, arr. by John B. Wilkes, 1861
T:Public Domain Courtesy of the Cyber Hymnal™
C:John Antes, 1790, arr. by John B. Wilkes, 1861
Z:Public Domain
Z:Courtesy of the Cyber Hymnal™
%%score ( 1 2 ) ( 3 4 )
L:1/8
Q:1/4=113
M:none
K:C
V:1 treble 
V:2 treble 
V:3 bass 
V:4 bass 
V:1
 C2 [CE]2 [DG]2 [CE]2 | (FG) (AB) [Ec]4 | [Ge]2 [Ge]2 [Gd]2 [Gc]2 | [GB]2 [^FA]2 G4 x | %4
 [Gd]2 (dc) [DB]2 G2 | [Gc]2 [Ge]2 [Gd]4 | [Ge]2 (dc) [GB]2 [Gc]2 | [Gc]2 [DB]2 [Ec]4 |] %8
V:2
 C2 x6 | C2 F2 x4 | x8 | x4 G4 x | x2 D2 x G2 x | x8 | x2 G2 x4 | x8 |] %8
V:3
 [C,E,]2 [A,,A,]2 [G,,B,]2 [C,G,]2 | [F,A,]2 [D,F,]2 [C,G,]4 | C2 C2 [G,B,]2 [E,C]2 | %3
 D3 z C [G,B,]4 | [G,B,]2 [^F,A,]2 G,2 B,2 | [E,C]2 [C,C]2 [G,B,]4 | %6
 [C,C]2 ([D,B,][E,C]) [F,D]2 [E,C]2 | [G,D]2 [G,,G,]2 [C,G,]4 |] %8
V:4
 x8 | x8 | (C,D,) (E,F,) x4 | D,2 D,2 x5 | x6 (G,=F,) | x8 | x8 | x8 |] %8

